X:244
T:The Town of Coote Hill
S:Emma Corbett - https://www.facebook.com/dungarvansingersclub/videos/1089104164488921/
R:jig
M:6/8
L:1/8
K:D
FEF DEF | GFG E2d | cBc ABc | dcB A2G |
FEF DEF | GFG E2d | cBc ABc |1 dfe dAG :|2 dfe dfg |:
add bdd | add fed | cBc ABc | dfb afg |
add bdd | add fed | cBc ABc |1 dfe dfg :|2 dfe dAG |]
